X: 21191
U: Q=!diminuendo(!
U: q=!diminuendo)!
M: 2/4
L: 1/16
K: G
V: 1 name="4"
dc |\
g2 B4 d2 | A2 c4 e2 | e2 Qd4q F2 | G4 z2 H|]
|: d2 |\
b4 agfe | d4 cBAG | F2A2 d2c2 | B2cd (efga) |\
b4 agfe | d4 cBAG | F2A2 c2e2 | dcBA "^D.C."G2 :|
e2 |\
eeee e2g2 | e2G2 c2G2 | eeee e2g2 | f2G2 e2G2 |\
eeee e2g2 | e2G2 c2G2 | dddd d2g2 | c4 "^D.C."z2 |]


